dest/img/img-trust-17.svg

<svg fill="none" height="36" viewBox="0 0 95 36" width="95" xmlns="http://www.w3.org/2000/svg"><path clip-rule="evenodd" d="m49.8109 12.3364c-.7947-.6741-2.1511-1.0108-4.0699-1.0108h-4.3279v13.4891h3.2361v-4.2277h1.4497c1.7594 0 3.0496-.3905 3.8707-1.1723.9248-.8759 1.3902-2.0422 1.3902-3.4982 0-1.5098-.5165-2.7034-1.5489-3.5801zm-3.7925 5.1984h-1.3692v-3.1569h1.2301c1.4963 0 2.2444.5293 2.2444 1.5879 0 1.045-.7023 1.5682-2.1053 1.5682zm10.879-6.21h-3.3744v13.4891h7.2858v-3.053h-3.9114zm10.5227 0-5.3008 13.4891h3.6331l.6947-1.961h4.6061l.6353 1.961h3.6738l-5.2632-13.4891zm-.0399 8.7974 1.3903-4.6106 1.3684 4.6106h-2.7594zm9.6678 4.6917h3.3752v-13.4891h-3.3752zm16.4791-10.9608c-.4264-.6235-.9738-1.1531-1.6091-1.5568-1.0188-.6477-2.409-.9707-4.1692-.9707h-4.4466v13.4883h5.2015c1.8797 0 3.388-.6195 4.5264-1.8601 1.1383-1.2399 1.7067-2.8855 1.7067-4.9352 0-1.6304-.4037-3.0189-1.2105-4.1655zm-5.4008 7.9071h-1.4489v-7.3816h1.4692c1.0323 0 1.8255.3261 2.3819.976s.8346 1.572.8346 2.7656c0 2.4266-1.0789 3.64-3.2368 3.64zm-74.1134-21.7602-10.93769 2.88922-3.0143073 11.09358 3.7699573 3.9038-3.83086 3.8394 2.83686 11.1421 10.89034 3.069 3.8316-3.8402 3.7699 3.9031 10.9377-2.8892 3.0136-11.0943-3.7692-3.9024 3.8308-3.8394-2.8368-11.14281-10.8918-3.068949-3.8302 3.839399zm-6.71209 5.02315 5.76169-1.52272 2.5196 2.60864-3.6745 3.68243zm12.64819 1.12081 2.5602-2.56542 5.7369 1.61675-4.682 4.69176zm-16.43619 6.92804 1.58723-5.84288 4.6053 4.76838-3.67371 3.6824-2.51882-2.6086zm22.21599-.9426 4.682-4.69326 1.4932 5.86946-2.5594 2.5662zm-11.6558-.0963 3.6745-3.68242 3.6143 3.74312-3.6737 3.6824zm-5.87519 5.8884 3.67369-3.6824 3.6166 3.7431-3.6752 3.6824zm11.65649.0963 3.6737-3.6824 3.6151 3.7431-3.6745 3.6824zm-16.41818 4.6766 2.56092-2.5669 3.61431 3.7438-4.68048 4.691zm10.54218 1.2118 3.6745-3.6824 3.615 3.7431-3.6737 3.6824zm11.6557.0971 3.6745-3.6824 2.5196 2.6078-1.5865 5.8429zm-18.53845 6.8022 4.68125-4.6933 3.6166 3.7431-2.561 2.5669-5.73685-1.6175zm12.66405-.9146 3.6737-3.6824 4.606 4.7691-5.7609 1.522z" fill="#576472" fill-rule="evenodd"/></svg>

<svg width="95" height="36" viewBox="0 0 95 36" fill="none" xmlns="http://www.w3.org/2000/svg">
<path fill-rule="evenodd" clip-rule="evenodd" d="M49.8109 12.3364C49.0162 11.6623 47.6598 11.3256 45.741 11.3256H41.4131V24.8147H44.6492V20.587H46.0989C47.8583 20.587 49.1485 20.1965 49.9696 19.4147C50.8944 18.5388 51.3598 17.3725 51.3598 15.9165C51.3598 14.4067 50.8433 13.2131 49.8109 12.3364ZM46.0184 17.5348H44.6492V14.3779H45.8793C47.3756 14.3779 48.1237 14.9072 48.1237 15.9658C48.1237 17.0108 47.4214 17.534 46.0184 17.534V17.5348ZM56.8974 11.3248H53.523V24.8139H60.8088V21.7609H56.8974V11.3248ZM67.4201 11.3248L62.1193 24.8139H65.7524L66.4471 22.8529H71.0532L71.6885 24.8139H75.3623L70.0991 11.3248H67.4201ZM67.3802 20.1222L68.7705 15.5116L70.1389 20.1222H67.3795H67.3802ZM77.048 24.8139H80.4232V11.3248H77.048V24.8139ZM93.5271 13.8531C93.1007 13.2296 92.5533 12.7 91.918 12.2963C90.8992 11.6486 89.509 11.3256 87.7488 11.3256H83.3022V24.8139H88.5037C90.3834 24.8139 91.8917 24.1944 93.0301 22.9538C94.1684 21.7139 94.7368 20.0683 94.7368 18.0186C94.7368 16.3882 94.3331 14.9997 93.5263 13.8531H93.5271ZM88.1263 21.7602H86.6774V14.3786H88.1466C89.1789 14.3786 89.9721 14.7047 90.5285 15.3546C91.0849 16.0045 91.3631 16.9266 91.3631 18.1202C91.3631 20.5468 90.2842 21.7602 88.1263 21.7602ZM14.0129 0L3.07521 2.88922L0.0609027 13.9828L3.83086 17.8866L0 21.726L2.83686 32.8681L13.7272 35.9371L17.5588 32.0969L21.3287 36L32.2664 33.1108L35.28 22.0165L31.5108 18.1141L35.3416 14.2747L32.5048 3.13189L21.613 0.062941L17.7828 3.90234L14.0129 0ZM7.30081 5.02315L13.0625 3.50043L15.5821 6.10907L11.9076 9.7915L7.30081 5.02315ZM19.949 6.14396L22.5092 3.57854L28.2461 5.19529L23.5641 9.88705L19.949 6.14396ZM3.51281 13.072L5.10004 7.22912L9.70534 11.9975L6.03163 15.6799L3.51281 13.0713V13.072ZM25.7288 12.1294L30.4108 7.43614L31.904 13.3056L29.3446 15.8718L25.7288 12.1294ZM14.073 12.0331L17.7475 8.35068L21.3618 12.0938L17.6881 15.7762L14.073 12.0331ZM8.19781 17.9215L11.8715 14.2391L15.4881 17.9822L11.8129 21.6646L8.19781 17.9215ZM19.8543 18.0178L23.528 14.3354L27.1431 18.0785L23.4686 21.7609L19.8543 18.0178ZM3.43612 22.6944L5.99704 20.1275L9.61135 23.8713L4.93087 28.5623L3.43612 22.6944ZM13.9783 23.9062L17.6528 20.2238L21.2678 23.9669L17.5941 27.6493L13.9783 23.9062ZM25.634 24.0033L29.3085 20.3209L31.8281 22.9287L30.2416 28.7716L25.634 24.0033ZM7.09555 30.8055L11.7768 26.1122L15.3934 29.8553L12.8324 32.4222L7.09555 30.8047V30.8055ZM19.7596 29.8909L23.4333 26.2085L28.0393 30.9776L22.2784 32.4996L19.7596 29.8909Z" fill="#576472"/>
</svg>
